X:1
T:Title
%%score { ( 1 3 ) | ( 2 4 5 ) }
L:1/8
Q:1/4=92
M:2/4
K:G
V:1 treble nm="Grand Piano"
V:3 treble 
V:2 bass 
V:4 bass 
V:5 bass 
V:1
 [B,D][DB] [CA][B,G] | G2 F2 | EG FE | [B,D]4 | DE FG | B2 A2 | AG FE | A4 | .[DB].D .E.D | %9
w: B.~D.~Ackley * * *|||||||||
 .G.A .B2 | .A.D .E.D | G4 | [B,D]B AG | [DF]E c2 | Bc B<A | [B,G]4 |] %16
w: |||||||
V:2
 [G,,G,]2 [G,,D,]2 | [A,,D,]2 [D,A,]2 | [D,A,]3 [D,F,] | [G,,G,]4 | [G,,G,]4 | G,2 F,2 | E,2 A,G, | %7
 [D,F,D]4 | z B,3 | [B,,G,][D,F,] G,2 | C C3 | .D,2 z2 | z D3 | z C E2 | DE D<C | [G,,D,G,]4 |] %16
V:3
 x4 | C4- | C4 | x4 | B,4 | D4 | ^C4 | x4 | x4 | D4 | x4 | B,C B,2 | x4 | x4 | x4 | x4 |] %16
V:4
 x4 | x4 | x4 | x4 | x4 | A,,4 | A,,4 | x4 | [G,,G,]4 | x4 | [D,F,]4 | G,,-[G,,-E,] [G,,D,]2 | %12
 z2 [A,,F,][B,,G,] | [C,G,]4 | [D,G,]2 [D,F,]2 | x4 |] %16
V:5
 x4 | x4 | x4 | x4 | x4 | x4 | x4 | x4 | x4 | x4 | x4 | x4 | [G,,G,]2 z2 | x4 | x4 | x4 |] %16

